X:298
T:B298-  Lusty Gallant
Q:1/4=120
L:1/8
M:4/4
K:Cm
E2|E2FG A2=AB|c2G2c2G2|=E2FGG2FE|DCD2=E4::\
E2DEF2F2|G2=A2B2B2|=A2G2F2E2|DCD2C4:|]

